X:1
T:Title
%%score { 1 | 2 }
L:1/8
M:4/4
K:Db
V:1 treble nm="Grand Piano"
V:2 bass 
V:1
 z4 z2[Q:1/4=100] [A,DF][A,EG] | [A,FA][DFA] [CFA]>[B,FA] [A,FA][A,DF][A,EG][DFA] | %2
 [DGB][DGB] [DGB]>[DGB] [DGB]2 [CG=A][DGB] | cc c>c [Gc][GB][FA][EG] |[M:3/4] [DF]6 | %5
[M:1/4] [DF][EG] |[M:4/4] [FA][FA] [FA]>[FA] [FA]FGA | %7
[M:9/8] BB[AB]- [AB]/[AB]/ [=Ge]2- [Ge][Ge][Gd] |[M:4/4] dc c>B A[DFA] [DGB]>[CGA] | %9
[M:3/4] [Fd]6 |] %10
V:2
 z4 z2 D,D, | D,D, D,>D, D,D,D,D, | G,G, G,>G, E,2 E,E, | %3
 [A,CG][A,CG] [A,G]>[A,G][K:bass] [A,,A,][A,,A,][A,,A,][A,,A,] |[M:3/4] [D,A,]6 | %5
[M:1/4] [D,A,][D,A,] |[M:4/4] [D,A,][D,D] [D,C]>[D,B,] [D,A,][D,A,D][E,A,C][F,A,D] | %7
[M:9/8] [G,D][G,DG][F,=D]- [F,D]/[F,D]/ [E,_D]2- [E,D][E,B,][E,B,] | %8
[M:4/4][K:treble] [A,CG][A,CG] [A,EG]>[A,DG] [A,DF][K:bass]A,, A,,>A,, |[M:3/4] [D,A,D]6 |] %10

